src/cmd/sc_showmultiplepages.svg

<svg viewBox="0 0 16 16" xmlns="http://www.w3.org/2000/svg">/&gt;<path d="m2 1v6h5v-4l-1.5-2zm7 0v6h5v-4l-1.5-2zm-6 1h2.25l.75 1v3h-3zm7 0h2.25l.75 1v3h-3zm-8 7v6h5v-4l-1.5-2zm7 0v6h5v-4l-1.5-2zm-6 1h2.25l.75 1v3h-3zm7 0h2.25l.75 1v3h-3z" fill="#232629"/></svg>

<?xml version="1.0" encoding="UTF-8" standalone="no"?>
<svg
   xmlns:dc="http://purl.org/dc/elements/1.1/"
   xmlns:cc="http://creativecommons.org/ns#"
   xmlns:rdf="http://www.w3.org/1999/02/22-rdf-syntax-ns#"
   xmlns:svg="http://www.w3.org/2000/svg"
   xmlns="http://www.w3.org/2000/svg"
   xmlns:sodipodi="http://sodipodi.sourceforge.net/DTD/sodipodi-0.dtd"
   xmlns:inkscape="http://www.inkscape.org/namespaces/inkscape"
   viewBox="0 0 16 16"
   version="1.1"
   id="svg4"
   sodipodi:docname="sc_showmultiplepages.svg"
   inkscape:export-filename="/home/jupiter007/Libreoffice yaru theme fullcolor/build/cmd/sc_showmultiplepages.png"
   inkscape:export-xdpi="95"
   inkscape:export-ydpi="95"
   inkscape:version="0.92.5 (2060ec1f9f, 2020-04-08)"><metadata
   id="metadata10">
  <rdf:RDF>
    <cc:Work
       rdf:about="">
      <dc:format>image/svg+xml</dc:format>
      <dc:type
         rdf:resource="http://purl.org/dc/dcmitype/StillImage" />
    </cc:Work>
  </rdf:RDF>
</metadata>
<defs
   id="defs8" />
<sodipodi:namedview
   pagecolor="#ffffff"
   bordercolor="#666666"
   borderopacity="1"
   objecttolerance="10"
   gridtolerance="10"
   guidetolerance="10"
   inkscape:pageopacity="0"
   inkscape:pageshadow="2"
   inkscape:window-width="1920"
   inkscape:window-height="1011"
   id="namedview6"
   showgrid="false"
   inkscape:zoom="29.5"
   inkscape:cx="7.5778951"
   inkscape:cy="8.989921"
   inkscape:window-x="1920"
   inkscape:window-y="32"
   inkscape:window-maximized="1"
   inkscape:current-layer="svg4" />
/&gt;<path
   sodipodi:nodetypes="cccccccccccccccccccccccc"
   style="fill:#000000;stroke:#000000;opacity:0.6;stroke-width:2;stroke-miterlimit:4;stroke-dasharray:none;stroke-linejoin:round"
   inkscape:connector-curvature="0"
   id="path819"
   d="M 2,1 V 7 H 7 V 3 L 5.5,1 Z m 7,0 v 6 h 5 V 3 L 12.5,1 Z M 2,9 v 6 H 7 V 11 L 5.5,9 Z m 7,0 v 6 h 5 V 11 L 12.5,9 Z" />
<path
   d="M 2,1 V 7 H 7 V 3 L 5.5,1 Z m 7,0 v 6 h 5 V 3 L 12.5,1 Z M 2,9 v 6 H 7 V 11 L 5.5,9 Z m 7,0 v 6 h 5 V 11 L 12.5,9 Z"
   id="path2"
   inkscape:connector-curvature="0"
   style="fill:#ffffff"
   sodipodi:nodetypes="cccccccccccccccccccccccc" />
</svg>
